X:1
T: Ingonish
C:
R:Jig
Q:180
K:Em
M:6/8
L:1/16
|:B2|B2e2e2 e2f2g2|f2e2f2 d2B2A2|B2e2e2 e2f2g2|a2f2e2 d2B2A2|
B2e2e2 e2f2g2|f2e2f2 d2B2A2|B2d2B2 A2B2A2|G2E2E2 E4:|
|:A2|B2E2E2 B2E2B2|A2F2D2 D2F2A2|B2E2B2 B2E2B2|A2F2G2 A2d2c2|
B2E2E2 B2E2B2|A2F2D2 D2F2A2|B2^c2d2 e2B2A2|G2E2E2 E4:|
